icons/webstorm-dark.svg

<svg xmlns="http://www.w3.org/2000/svg" width="256" height="256" fill="none"><g clip-path="url(#clip0_36_1182)"><path fill="#282828" d="M196 0H60C26.863 0 0 26.863 0 60v136c0 33.137 26.863 60 60 60h136c33.137 0 60-26.863 60-60V60c0-33.137-26.863-60-60-60"/><g clip-path="url(#clip1_36_1182)"><path fill="url(#paint0_linear_36_1182)" d="M63.5 198.25 40 58.25l43.75-18 27.75 16.5L137 43l53.25 20.5-30 151.5z"/><path fill="url(#paint1_linear_36_1182)" d="M215 99.25 192.5 43.5l-41-3.5-63.25 60.75 17 78.25L137 201.5l78-46.5-19.25-35.75z"/><path fill="url(#paint2_linear_36_1182)" d="m180 91 15.75 28.25 19.25-20-14-34.75z"/><path fill="#000" d="M181.5 73.5h-108v108h108z"/><path fill="#fff" d="M124.25 161.25h-40.5V168h40.5zm12.5-35.5 5.75-7c4 3.25 8.25 5.5 13.25 5.5 4 0 6.25-1.5 6.25-4.25v-.25c0-2.5-1.5-3.75-9-5.75-9-2.25-14.5-4.75-14.5-13.75V100c0-8.25 6.5-13.5 15.5-13.5 6.5 0 12 2 16.5 5.75l-5 7.5c-4-2.75-7.75-4.5-11.5-4.5s-5.75 1.75-5.75 4v.25c0 3 2 4 9.5 6 9 2.5 14 5.75 14 13.5v.25c0 9-6.75 14-16.25 14-6.75-.25-13.5-2.75-18.75-7.5M128 87.5l-6.75 26-7.5-26h-7.5l-7.75 26-6.75-26H81.5l12.75 44.75h8.25l7.5-26 7.25 26h8.5L138.5 87.5z"/></g></g><defs><linearGradient id="paint0_linear_36_1182" x1="102.67" x2="147.957" y1="43.65" y2="206.687" gradientUnits="userSpaceOnUse"><stop offset=".285" stop-color="#00CDD7"/><stop offset=".941" stop-color="#2086D7"/></linearGradient><linearGradient id="paint1_linear_36_1182" x1="116.8" x2="193.413" y1="64.336" y2="176.677" gradientUnits="userSpaceOnUse"><stop offset=".14" stop-color="#FFF045"/><stop offset=".366" stop-color="#00CDD7"/></linearGradient><linearGradient id="paint2_linear_36_1182" x1="192.705" x2="202.765" y1="78.225" y2="113.86" gradientUnits="userSpaceOnUse"><stop offset=".285" stop-color="#00CDD7"/><stop offset=".941" stop-color="#2086D7"/></linearGradient><clipPath id="clip0_36_1182"><path fill="#fff" d="M0 0h256v256H0z"/></clipPath><clipPath id="clip1_36_1182"><path fill="#fff" d="M40 40h175v175H40z"/></clipPath></defs></svg>

<svg width="256" height="256" viewBox="0 0 256 256" fill="none" xmlns="http://www.w3.org/2000/svg">
<g clip-path="url(#clip0_36_1182)">
<path d="M196 0H60C26.8629 0 0 26.8629 0 60V196C0 229.137 26.8629 256 60 256H196C229.137 256 256 229.137 256 196V60C256 26.8629 229.137 0 196 0Z" fill="#282828"/>
<g clip-path="url(#clip1_36_1182)">
<path d="M63.5 198.25L40 58.25L83.75 40.25L111.5 56.75L137 43L190.25 63.5L160.25 215L63.5 198.25Z" fill="url(#paint0_linear_36_1182)"/>
<path d="M215 99.25L192.5 43.5L151.5 40L88.25 100.75L105.25 179L137 201.5L215 155L195.75 119.25L215 99.25Z" fill="url(#paint1_linear_36_1182)"/>
<path d="M180 91L195.75 119.25L215 99.25L201 64.5L180 91Z" fill="url(#paint2_linear_36_1182)"/>
<path d="M181.5 73.5H73.5V181.5H181.5V73.5Z" fill="black"/>
<path d="M124.25 161.25H83.75V168H124.25V161.25Z" fill="white"/>
<path d="M136.75 125.75L142.5 118.75C146.5 122 150.75 124.25 155.75 124.25C159.75 124.25 162 122.75 162 120V119.75C162 117.25 160.5 116 153 114C144 111.75 138.5 109.25 138.5 100.25V100C138.5 91.75 145 86.5 154 86.5C160.5 86.5 166 88.5 170.5 92.25L165.5 99.75C161.5 97 157.75 95.25 154 95.25C150.25 95.25 148.25 97 148.25 99.25V99.5C148.25 102.5 150.25 103.5 157.75 105.5C166.75 108 171.75 111.25 171.75 119V119.25C171.75 128.25 165 133.25 155.5 133.25C148.75 133 142 130.5 136.75 125.75Z" fill="white"/>
<path d="M128 87.5L121.25 113.5L113.75 87.5H106.25L98.5 113.5L91.75 87.5H81.5L94.25 132.25H102.5L110 106.25L117.25 132.25H125.75L138.5 87.5H128Z" fill="white"/>
</g>
</g>
<defs>
<linearGradient id="paint0_linear_36_1182" x1="102.67" y1="43.6498" x2="147.957" y2="206.687" gradientUnits="userSpaceOnUse">
<stop offset="0.2849" stop-color="#00CDD7"/>
<stop offset="0.9409" stop-color="#2086D7"/>
</linearGradient>
<linearGradient id="paint1_linear_36_1182" x1="116.8" y1="64.3357" x2="193.413" y2="176.677" gradientUnits="userSpaceOnUse">
<stop offset="0.1398" stop-color="#FFF045"/>
<stop offset="0.3656" stop-color="#00CDD7"/>
</linearGradient>
<linearGradient id="paint2_linear_36_1182" x1="192.705" y1="78.225" x2="202.765" y2="113.86" gradientUnits="userSpaceOnUse">
<stop offset="0.2849" stop-color="#00CDD7"/>
<stop offset="0.9409" stop-color="#2086D7"/>
</linearGradient>
<clipPath id="clip0_36_1182">
<rect width="256" height="256" fill="white"/>
</clipPath>
<clipPath id="clip1_36_1182">
<rect width="175" height="175" fill="white" transform="translate(40 40)"/>
</clipPath>
</defs>
</svg>
